X: 39
T:Mary Shore [in F]
M:6/8
L:1/8
C:Larry Redigan
R:Double Jig
K:F
F2F GFD|CFA cag|fdc dcA|cAF G2E|!
~F3 GFD|CFA cef|dcA cAF|1GFE F2D/2E/2:|2GFE F2e|]!
fgf edc|def cAF|CFA CFA|cAF G2e|!
~f3 edc|def cAF|BGG GcB|AFF F2e||!
fgf edc|def cAF|CFA CFA|cAF G2e|!
~f3 gfg|afd cAF|AFD CFA|GFE F3|]!
